X:1
T:12 New Songs by some of the best and best-known British composers
T:In Summer Weather
T:To H.R.H. The Princess Louise (Marchioness of Lorne) 
T:12 New Songs
T:Charles Harford Lloyd
T:5. In Summer Weather
T:Harold Boulton 
T:Creative Commons copyright waiver (CC0 1.0 Universal)
T:Creative Commons copyright waiver (CC0 1.0 Universal)
T:Creative Commons copyright waiver (CC0 1.0 Universal)
T:Creative Commons copyright waiver (CC0 1.0 Universal)
T:Creative Commons copyright waiver (CC0 1.0 Universal)
T:Creative Commons copyright waiver (CC0 1.0 Universal)
T:Creative Commons copyright waiver (CC0 1.0 Universal)
T:Creative Commons copyright waiver (CC0 1.0 Universal)
C:Charles Harford Lloyd
Z:Harold Boulton (also series editor)
Z:Creative Commons copyright waiver (CC0 1.0 Universal)
%%score 1 { ( 2 4 ) | ( 3 5 ) }
L:1/8
Q:1/4=110
M:2/4
K:Bb
V:1 treble nm="Voice"
V:2 treble nm="Piano"
V:4 treble 
V:3 bass 
V:5 bass 
V:1
"^Non troppo allegro" z | z4 | z4 | z4 | z4 | z4 | z2 z!p! F | F B c B/ c/ | d3 c | B A/ B/ c F | %10
w: ||||||There’s|ten- der green on the|tree, The|birds are in fi- nest|
 f2 d"^cresc." d | c2 F c | !>!d3/2 F/ F z | z4 | z4 | z4 | z4 | z4 | z4 | z4 | z4 | z4 | z4 | %23
w: fea- ther, And|lov- ers in|ec- sta- sy|||||||||||
 z F/ G/ A G/ A/ |"^cresc." (B=Bc) e | (d>=B) G2 | z4 | z4 | z4 | z4 | z4 | z4 | z4 | z4 | z4 | %35
w: In the first of the|sum- * * mer|wea- * ther.||||||||||
 z4 | z4 | z4 | z4 | z4 | z2 z!p! F | F B c B/ c/ | d3 z | z4 | z4 | z4 | z4 | z4 | z2 z (F/G/) | %49
w: |||||The|bird must cap- ture his|mate,||||||the *|
"^cresc." A A/ B/ c (d/=e/) | f2 F z | z4 | z2 z!mf! d | B3 F | G4 | z4 | z4 | z4 | z4 | z4 | z4 | %61
w: kis- ses for which he’s *|striv- en.||Sing|heigh! sing|ho!|||||||
 z4 | z4 | z4 | z4 | z (F/G/) A"^cresc." G/ A/ | (!tenuto!B!tenuto!=B!tenuto!c) g | f4- | f4- | %69
w: ||||How * quick- ly he’ll|be _ _ for-|giv-||
 f2 F2 | z4 | z4 | z4 | z4 | z4 | z4 | z4 | z4 | z3 B/ c/ | _A3/2 G/ F c | d D z2 | z4 | %82
w: * en.|||||||||Ere the|leaf be sere and|yel- low,||
 z2 z =E/ ^F/ | G3/2 A/ =B =e | d =B z z | z4 | z4 | z4 | z4 | z4 | z4 | z4 | z4 | %93
w: That your|fruit be rich and|mel- low;|||||||||
 z c/ d/ (e/c/) _A | G4 | z"^animando" G"^cresc." G A/ =B/ | (c>de) c | f4 | F3 z | z4 | z4 | z4 | %102
w: ’Tis a world * of|woe,|Till ev- ry one|find _ _ his|fel-|low.||||
 z4 | z4 | z4 | z4 | z4 | z4 | z4 | z4 | z2 z |] %111
w: |||||||||
V:2
!mf! F | (FBcB/c/ | dc/B/c) F | (F"_cresc."B/c/ dc/B/) | z4 | z4 | z4 | z4 | z4 | z4 | z4 | z4 | %12
 z4 | z4 | z4 | z4 | z4 | z4 | z4 | z4 | z4 | z4 | z4 | z4 | z4 | z4 | z4 | z4 | z4 | z4 | z4 | %31
 z4 | z4 | z4 | z4 | z4 | z4 | z4 | !tenuto![=EBd] z!f! !tenuto![A_ef] z | z4 | z4 | z4 | z4 | z4 | %44
 z4 | z4 | z4 | z4 | z4 | z4 | z4 | z4 | z4 | z4 | z4 | z4 | z4 | z4 | z4 | z4 | z4 | z4 | z4 | %63
 z4 | z4 | z4 | z4 | z4 | z4 | z4 | z4 | z4 | z4 | z4 | z4 | z4 | z4 | z4 | z4 | z4 | z4 | z4 | %82
 z4 | z4 | z4 | z4 | z4 | z4 | z4 | z4 | z4 | z4 | z4 | z4 | z4 | z4 | z4 | z4 | z4 | z4 | z4 | %101
 z4 | z4 | z4 | z4 | z4 | z4 | z4 | z4 | z4 | z3 |] %111
V:3
 z | (B,F,A,F,) | (B,F,A,F,) | (B,F,A,F,) | z4 | z4 | z4 | z4 | z4 | z4 | z4 | z4 | z4 | z4 | z4 | %15
 z4 | z4 | z4 | z4 | z4 | z4 | z4 | z4 | z4 | z4 | z4 | z4 | z4 | z4 | z4 | z4 | z4 | z4 | z4 | %34
 z4 | z4 | z4 | z4 | !tenuto![G,,G,] z !tenuto![F,,F,] z | z4 | z4 | z4 | z4 | z4 | z4 | z4 | z4 | %47
 z4 | z4 | z4 | z4 | z4 | z4 | z4 | z4 | z4 | z4 | z4 | z4 | z4 | z4 | z4 | z4 | z4 | z4 | z4 | %66
 z4 | z4 | z4 | z4 | z4 | z4 | z4 | z4 | z4 | z4 | z4 | z4 | z4 | z4 | z4 | z4 | z4 | z4 | z4 | %85
 z4 | z4 | z4 | z4 | z4 | z4 | z4 | z4 | z4 | z4 | z4 | z4 | z4 | z4 | z4 | z4 | z4 | z4 | z4 | %104
 z4 | z4 | z4 | z4 | z4 | z4 | z3 |] %111
V:4
 x | z/ D3/2 z/ E3/2 | z/ D3/2 z/ E3/2 | z/ D3/2 z/ D3/2 | x4 | x4 | x4 | x4 | x4 | x4 | x4 | x4 | %12
 x4 | x4 | x4 | x4 | x4 | x4 | x4 | x4 | x4 | x4 | x4 | x4 | x4 | x4 | x4 | x4 | x4 | x4 | x4 | %31
 x4 | x4 | x4 | x4 | x4 | x4 | x4 | x4 | x4 | x4 | x4 | x4 | x4 | x4 | x4 | x4 | x4 | x4 | x4 | %50
 x4 | x4 | x4 | x4 | x4 | x4 | x4 | x4 | x4 | x4 | x4 | x4 | x4 | x4 | x4 | x4 | x4 | x4 | x4 | %69
 x4 | x4 | x4 | x4 | x4 | x4 | x4 | x4 | x4 | x4 | x4 | x4 | x4 | x4 | x4 | x4 | x4 | x4 | x4 | %88
 x4 | x4 | x4 | x4 | x4 | x4 | x4 | x4 | x4 | x4 | x4 | x4 | x4 | x4 | x4 | x4 | x4 | x4 | x4 | %107
 x4 | x4 | x4 | x3 |] %111
V:5
 x | B,,4 | B,,4 | B,,2 A,,2 | x4 | x4 | x4 | x4 | x4 | x4 | x4 | x4 | x4 | x4 | x4 | x4 | x4 | %17
 x4 | x4 | x4 | x4 | x4 | x4 | x4 | x4 | x4 | x4 | x4 | x4 | x4 | x4 | x4 | x4 | x4 | x4 | x4 | %36
 x4 | x4 | x4 | x4 | x4 | x4 | x4 | x4 | x4 | x4 | x4 | x4 | x4 | x4 | x4 | x4 | x4 | x4 | x4 | %55
 x4 | x4 | x4 | x4 | x4 | x4 | x4 | x4 | x4 | x4 | x4 | x4 | x4 | x4 | x4 | x4 | x4 | x4 | x4 | %74
 x4 | x4 | x4 | x4 | x4 | x4 | x4 | x4 | x4 | x4 | x4 | x4 | x4 | x4 | x4 | x4 | x4 | x4 | x4 | %93
 x4 | x4 | x4 | x4 | x4 | x4 | x4 | x4 | x4 | x4 | x4 | x4 | x4 | x4 | x4 | x4 | x4 | x3 |] %111

